X:31
T: Heimkehr des Ehemannes
N: Q0011B
O: Suedosteuropa, Jugoslawien, Gottschee, Handlern
N: 2. und 4. Zeile = Refrain auf sinnfreie Silben.
R: Ballade, Ehe, Heimkehr
M: 2/4
L: 1/8
K: Ab
A | eeed | dcc2 |
eeed | d4 | c3
A | cccB | BAA2 |
cccB | B4 | A3

@@@ Tune index: 660
